X:1
T:Title
L:1/8
M:4/4
K:Eb
V:1 treble nm="Grand Piano"
V:1
 z4 z2[Q:1/4=100] C2 | G3 F EDEF | G6 C2 | c3 B A2 BA | G6 C2 | G3 F EDEF | G6 C2 | c3 B A2 BA | %8
 G6 G2 | e3 d c>=B c>d | c4 B2 A2 | G3 F EDEF | G6 A2 | G3 F EFED | C6 z2 |] %15

